src/img/clients/line_music.svg

<svg width="245" height="116" viewBox="0 0 245 116" fill="none" xmlns="http://www.w3.org/2000/svg">
<g clip-path="url(#clip0_4258_10155)">
<path d="M0 78.6C1.18559 77.5264 2.70311 76.8911 4.3 76.8L17 75C17.6 74.9 18.2 74.8 18.3 74C19.2 66.3 21.6 59 24.4 51.8C30.1612 37.1925 36.7725 22.9348 44.2 9.1L45.1 6.9C40.9 8.9 36.9 11.4 31.9 11.4C32.1 10.8 32.5 10.8 32.8 10.8C38.7873 9.75935 44.2484 6.72931 48.3 2.2L50.8 0H54C56.1 1.1 56.1 1.2 55.1 3.4C51.9 10.1 48 16.4 44.5 23C37.8509 35.1901 32.1991 47.8982 27.6 61L23.2 72.8C22.6 74.3 22.7 74.4 24.3 74.4C34.6 74 49.6 74.6 60 74.5V80L24.2 80.8H23.2C21.7 80.8 21 81 20.6 82.4C20.4 82.9 20.1 83.5 19.4 83.5C18.6 83.5 18.3 82.9 18.2 82.3C18 81.5 17.5 81.5 16.9 81.5L4.3 81.6C2.6 81.6 1.2 81.2 0.2 79.8C0 79.4 0 79 0 78.6H0Z" fill="#CAD5DD"/>
<path d="M245 58.1C243.4 60.4 241.9 62.7 240.1 64.8C238.409 66.7571 236.457 68.473 234.3 69.9C233.377 70.5765 232.313 71.0358 231.187 71.2436C230.062 71.4514 228.904 71.4023 227.8 71.1C226.942 70.908 226.146 70.5059 225.483 69.9298C224.82 69.3538 224.31 68.6219 224 67.8C223.7 66.9 223.3 67 222.6 67.5C220.8 68.9 219 70.4 216.9 71.4C214.5 72.6 213.3 72.4 211.5 70.4L210.9 69.6L209.6 72.5C208.7 74.5 207.3 76 205.4 77.2C204.2 78 203 77.9 201.9 77.1C200.8 76.3 200.8 75.2 201.2 74.1C201.9 71.7 203.6 70.2 205.6 68.9C207.9 67.3 208.5 66.1 207.8 63.3L206.4 58C206.3 57.6 206.4 57 206 56.9C205.5 56.8 205.3 57.4 205 57.7C203.344 59.9867 201.575 62.1894 199.7 64.3C198.7 65.4 197.7 66.6 196.6 67.6C194.7 69.3 192.9 69.4 191 67.7C190 66.8 189.5 67 188.7 68C187.8 69.2 186.7 70.3 185.2 70.8C182.8 71.6 180.7 70.6 179.7 68.3C178.9 66.2 178.8 64.1 179.3 61.9C180.658 56.867 183.156 52.2137 186.6 48.3C187.2 47.6 188 47.1 189 47.2C190.2 47.3 190.5 47.7 190.2 48.9C189.1 53.2 187.3 57.2 185.7 61.3C185 63.3 184.1 65.2 183.8 67.3C183.6 68.6 184.1 69.1 185.3 68.6C187.3 67.7 188.9 66.5 189.4 64.2C190.1 61.1 190.7 58 192.1 55.2L193.4 52.8C194.5 51.1 196.2 50.6 198 51.5C198.5 51.7 198.8 52.1 198.8 52.7C198.8 53.4 198.7 54.1 198.4 54.8L195 63.9C194.9 64.3 194.5 64.8 195 65C195.4 65.2 195.6 64.7 195.9 64.5L204.6 54.8C205.3 54 205.6 53 205.9 52C206.9 48.5 210.5 47.2 213.5 49.4C214.4 50.1 214.5 51 213.8 51.8L212.8 52.8C211.735 53.7728 211.031 55.0766 210.8 56.5C210.4 58.6 210.6 60.7 210.8 62.8C210.8 63.1 210.9 63.5 211.3 63.6C211.7 63.7 211.9 63.4 212.1 63.2C213.2 62.1 213.9 60.7 214.7 59.4C216.2 57 217.7 54.5 220.1 52.8C221 52.1 223.1 52.2 223.9 53.1C224.3 53.6 224 54 223.8 54.5L219.1 63C218.3 64.6 217.5 66.2 217 67.9C217.5 68.1 217.7 67.8 217.9 67.6L219.8 66C222.1 64.4 223.9 62.3 225.2 59.7C227.5 55.2 231.6 53 236.2 51.6C237.8 51.1 239.4 51.5 241 51.9C242 52.2 242.5 53.4 242.2 54.6C241.9 55.8 240.8 56.6 239.9 56.4C239.4 56.3 239.1 55.9 239 55.5C238.7 54.8 238.3 54.6 237.7 55.1C235.657 56.5057 233.92 58.312 232.597 60.4092C231.273 62.5064 230.39 64.8508 230 67.3C229.7 68.9 230 68.9 231.5 68.5C233.5 67.9 235.1 66.6 236.6 65.2C239 62.7 241.5 60.2 243.7 57.5C244.1 57 244.4 56.9 244.9 57.4L245 58.1V58.1ZM207.5 69C206.558 69.4657 205.736 70.1402 205.095 70.972C204.453 71.8039 204.011 72.7711 203.8 73.8C203.7 74.1 203.6 74.6 204 74.8C204.4 75 204.8 74.7 205.1 74.5C205.912 73.8435 206.555 73.0009 206.972 72.0435C207.39 71.0861 207.571 70.0421 207.5 69V69Z" fill="#CAD5DD"/>
<path d="M128.7 81.5999H125.8C129.9 69.1999 135.6 57.3999 141.4 45.5999C146.2 35.6999 151.3 25.8999 156.2 16.0999C156.9 14.7999 157.7 13.5999 158.6 12.3999C159.4 11.2999 160.5 10.8999 161.9 10.9999C162.7 10.9999 163.1 11.3999 163.1 12.1999C163.1 14.2999 162.8 16.2999 162 18.1999C161 20.3999 160.1 22.4999 158.9 24.5999C157.427 27.7752 156.578 31.2041 156.4 34.6999C155.1 44.9999 154 55.2999 152.3 65.4999C151.9 67.6999 151.8 69.8999 151.6 72.1999C161.587 56.0436 172.366 40.3911 183.9 25.2999C185.7 22.8999 188.1 20.8999 189.7 18.2999C190.6 16.7999 192.1 16.6999 193.7 16.9999C195.2 17.3999 195.7 18.2999 195.1 19.6999L194 22.0999C186.8 36.7999 179.8 51.6999 173.1 66.5999C171 71.1999 169.3 75.8999 167.5 80.5999L164.7 80.6999C168.6 67.5999 172.3 54.3999 178.3 42.0999C177.4 42.5999 176.9 43.4999 176.4 44.1999C167.9 56.0999 158.4 67.2999 151 79.9999C150.5 80.8999 149.8 81.1999 148.8 80.8999C148.3 80.3999 148.4 79.8999 148.5 79.2999C149.1 70.6999 149.2 62.1999 149.5 53.5999C149.6 50.6999 149.3 47.7999 149.8 44.8999C149.9 44.0999 150.4 43.2999 150.3 42.2999C149.8 42.5999 149.7 42.9999 149.5 43.2999L141.6 57.3999C136.7 65.1999 132.8 73.3999 128.7 81.5999V81.5999Z" fill="#CAD5DD"/>
<path d="M55.3999 57.5001L60.9999 51.4001C63.9999 48.1001 67.7999 45.7001 71.0999 42.9001C72.1999 42.0001 73.1999 42.7001 74.0999 43.3001C74.9999 43.9001 75.1999 44.8001 74.7999 45.7001L71.5999 53.5001L68.5999 60.6001C68.3999 61.0001 68.0999 61.5001 68.3999 62.2001L71.7999 59.4001L74.8999 56.7001C75.5999 56.2001 75.8999 55.5001 76.0999 54.7001C77.0149 50.3006 79.4596 46.3677 82.9999 43.6001C85.3999 41.8001 87.9999 40.2001 91.2999 40.3001C95.5999 40.5001 98.3999 44.6001 96.2999 48.5001C93.3999 54.0001 89.1999 58.0001 82.7999 59.0001C81.4999 59.2001 80.7999 59.7001 80.4999 61.1001C80.0999 62.8001 80.0999 64.3001 80.5999 65.9001C80.9999 67.2001 81.6999 67.7001 83.0999 67.5001C84.9999 67.1001 86.6999 66.4001 88.1999 65.0001C91.2999 62.1001 93.7999 58.7001 96.5999 55.6001L101.3 50.3001C101.7 49.9001 102.2 49.2001 102.7 49.6001C103.2 50.0001 102.8 50.8001 102.5 51.3001C100.1 54.7001 97.3999 57.8001 94.9999 61.1001C92.4909 64.2942 89.3614 66.9475 85.7999 68.9001C81.6999 71.4001 76.3999 68.4001 75.6999 63.3001L75.1999 59.4001C74.3999 59.6001 74.0999 60.1001 73.7999 60.5001C72.1999 62.2001 70.6999 63.8001 68.8999 65.4001C66.6999 67.3001 64.5999 66.7001 63.6999 64.0001C62.7999 61.2001 63.0999 58.5001 64.0999 55.8001L66.5999 49.6001V49.0001C66.2999 48.9001 66.0999 49.2001 65.8999 49.4001C59.8996 54.9827 54.3179 60.9989 49.1999 67.4001L47.7999 69.3001C47.1999 70.1001 46.3999 70.5001 45.3999 70.1001C44.3999 69.7001 44.4999 68.8001 44.5999 68.0001L44.9999 64.4001C44.3999 64.3001 44.1999 64.8001 43.8999 65.1001C42.6929 66.3055 41.3885 67.4093 39.9999 68.4001C37.2999 70.3001 34.3999 69.1001 33.6999 65.9001C32.9999 63.0001 33.9999 60.3001 34.7999 57.6001C36.7943 51.5325 40.1852 46.0179 44.6999 41.5001C45.1999 40.9001 45.8999 40.6001 46.6999 40.6001C48.8999 40.6001 49.7999 42.0001 48.6999 44.0001L42.3999 55.8001C40.5999 59.1001 39.5999 62.6001 38.2999 66.1001C38.0999 66.7001 38.1999 66.9001 38.7999 66.7001L40.5999 65.8001C43.7083 63.7771 46.2815 61.0325 48.0999 57.8001C51.2866 52.3226 54.6552 46.953 58.1999 41.7001C59.0999 40.9001 60.2999 40.8001 61.2999 41.6001C62.3999 42.4001 62.6999 43.3001 62.0999 44.5001L56.1999 55.7001C55.9 56.1541 55.6958 56.6645 55.5999 57.2001L55.4999 57.5001H55.3999V57.5001ZM92.1999 45.5001C92.1999 43.9001 92.0999 43.8001 90.5999 44.6001C89.8233 44.9832 89.1141 45.4897 88.4999 46.1001C85.2853 49.1466 82.9091 52.9692 81.5999 57.2001C81.4999 57.6001 81.0999 58.1001 81.4999 58.4001C81.8999 58.7001 82.3999 58.5001 82.8999 58.3001C87.4999 56.9001 92.1999 50.4001 92.1999 45.5001V45.5001ZM85.9999 78.0001L83.6999 78.7001C81.8999 79.1001 80.1999 79.8001 78.3999 79.9001L59.9999 80.0001C59.9999 78.0001 59.6999 76.4001 59.9999 74.5001C67.3999 74.8001 74.9999 74.6001 82.3999 74.3001C85.9999 74.2001 89.5999 73.7001 92.9999 72.5001C93.5999 72.3001 94.1999 72.1001 94.7999 72.2001C95.3999 72.2001 95.8999 72.4001 95.9999 73.0001C96.0999 73.7001 95.7999 74.0001 95.1999 74.3001C92.2999 75.6001 89.1999 76.9001 85.9999 78.0001Z" fill="#CAD5DD"/>
<path d="M224.7 41.8C224.6 39.7 225.1 38.5 226.4 38C228 37.3 230.2 37.9001 231.4 39.2001C231.8 39.6001 231.9 40 231.6 40.5L229.4 43.9001C228.7 44.9001 227.7 44.8001 226.7 44.7001C225.8 44.5001 225.1 44.1 224.9 43.1L224.7 41.8ZM51.6999 22.3L53.4999 22.9C55.4999 23.8 55.7999 24.7 54.6999 26.5L52.8999 29.4C52.3999 30.2 51.7999 30.3 50.9999 29.8C49.7999 29.1 49.2999 27.8 49.4999 26.4C49.5999 25.4 49.6999 24.4 49.9999 23.5C50.2999 22.7 50.7999 22.3 51.6999 22.3V22.3Z" fill="#CAD5DD"/>
<path d="M125.5 83C126.3 82.9 127.7 82 128.5 82L124.5 88.8C124.3 89.1 124.1 89.1 123.6 88.8C123.1 88.5 123.3 88.1 123.5 87.7C124 86.4 125 84.5 125.5 83ZM164.4 82H167C166.6 83.3 165.8 84.4 165.1 85.5C164.9 85.7 164.8 86.1 164.4 85.9C164 85.8 163.9 85.4 164 85.1L164.4 82V82Z" fill="#CAD5DD"/>
<path d="M51.6999 80.4C52.9999 78.5 54.0999 76.5 55.0999 74.4L58.4999 68.8L58.9999 67.9C59.1999 67.7 59.2999 67.3 59.6999 67.5C59.9999 67.6 59.8999 68 59.8999 68.3L59.3999 74.5C59.1011 76.4218 58.9008 78.3577 58.7999 80.3L58.3999 84.3C58.2999 85.2 58.4999 85.5 59.3999 85.4L77.0999 84.9C77.7999 84.9 78.5999 84.7 78.9999 84.2C80.5999 82.3 82.2999 80.6 83.6999 78.6L83.9999 78.4C84.2999 78.2 84.4999 77.8 84.9999 78C85.6999 81.6 85.4999 85.3 85.8999 88.9C86.4999 88.9 86.6999 88.4 86.8999 88.1L93.0999 80.6C93.2999 80.3 93.4999 79.8 93.8999 80C94.3999 80.2 94.1999 80.7 94.1999 81.1L93.2999 99.3L93.1999 100.9C93.8999 100.7 93.7999 100.1 93.9999 99.7L105.4 67.1L113 45.3C113.2 44.7 113.2 43.6 114 43.7C114.7 43.8 114.5 44.9 114.6 45.5C115.2 52.6 115.4 59.6 115.7 66.7L116.4 84L116.5 84.6C117.1 84.2 117.4 83.8 117.7 83.3C118.3 82.2 119.2 81.8 120.5 81.8L125.7 81.6H128.6C135.2 81.7 141.8 81.3 148.4 81.1C153.7 81 159 81 164.3 80.6L167.1 80.5L188.1 79.9C198 79.5 207.8 79.3 217.7 79.6C218.2 79.6 218.6 79.7 219.1 80C217.586 80.5155 215.999 80.7856 214.4 80.8C204.3 81.5 194.2 81.5 184.1 81.8L166.3 82.3H163.7L153.7 82.5L128.4 83.1L127.3 83.2C125.441 83.4149 123.569 83.4818 121.7 83.4C121.1 83.4 120.8 83.8 120.6 84.3C119.1 87.4 117.1 90.2 115.4 93.1C115.2 93.5 115 94.1 114.5 94C114 93.9 113.9 93.2 113.9 92.7L113.7 86.8C113.3 75.3 112.7 63.8 112.5 52.2L112.4 51.4C111.5 52.3 111.3 53.3 110.9 54.3L95.2999 100.7L90.1999 115.8H89.6999C89.5999 113.3 90.0999 110.8 90.2999 108.4L92.5999 87.3V85.2L87.5999 91.5L85.3999 94.4C85.1999 94.6 85.0999 95.1 84.6999 94.9C84.4958 93.0004 84.2958 91.1004 84.0999 89.2L83.5999 80.9C83.0999 80.7 82.9999 81.1 82.8999 81.3L81.4999 82.9C79.6999 85.8 77.0999 86.6 73.7999 86.6C68.5999 86.5 63.4999 86.9 58.2999 87C56.1999 87.1 56.1999 86.9 56.3999 84.9L56.9999 80.1C57.3999 78.2 57.5999 76.2 57.7999 74.2C57.8999 73.3 58.1999 72.4 58.0999 71.2C57.1999 72.2 56.6999 73.1 56.2999 74.1C55.0765 76.0124 54.0065 78.0186 53.0999 80.1C50.8999 83.5 49.1999 87.1 47.0999 90.6L43.3999 97.2C43.1999 97.6 42.9999 98.3 42.2999 98C41.5999 97.7 41.4999 97.1 41.6999 96.5L43.2999 90.7L45.0999 84.7C45.3999 83.9 45.1999 83.6 44.2999 83.7L32.3999 84.1C22.6999 84.3 13.0999 85 3.3999 84.8L1.8999 84.7C3.3999 84.2 4.9999 84.1 6.4999 84L44.5999 82.6C47.4999 82.5 47.4999 82.5 46.5999 85.4L44.7999 91.5L45.1999 91.7C47.5999 88.1 49.6999 84.3 51.6999 80.4V80.4Z" fill="#CAD5DD"/>
</g>
<defs>
<clipPath id="clip0_4258_10155">
<rect width="245" height="116" fill="white"/>
</clipPath>
</defs>
</svg>

<svg width="245" height="116" fill="none" xmlns="http://www.w3.org/2000/svg"><path d="M0 78.6a7 7 0 0 1 4.3-1.8L17 75c.6-.1 1.2-.2 1.3-1 .9-7.7 3.3-15 6.1-22.2A402.4 402.4 0 0 1 44.2 9.1l.9-2.2c-4.2 2-8.2 4.5-13.2 4.5.2-.6.6-.6.9-.6a27 27 0 0 0 15.5-8.6L50.8 0H54c2.1 1.1 2.1 1.2 1.1 3.4-3.2 6.7-7.1 13-10.6 19.6a257.4 257.4 0 0 0-16.9 38l-4.4 11.8c-.6 1.5-.5 1.6 1.1 1.6 10.3-.4 25.3.2 35.7.1V80l-35.8.8h-1c-1.5 0-2.2.2-2.6 1.6-.2.5-.5 1.1-1.2 1.1-.8 0-1.1-.6-1.2-1.2-.2-.8-.7-.8-1.3-.8l-12.6.1c-1.7 0-3.1-.4-4.1-1.8-.2-.4-.2-.8-.2-1.2Z" fill="#030303"/><path d="M245 58.1c-1.6 2.3-3.1 4.6-4.9 6.7a28.3 28.3 0 0 1-5.8 5.1 7.6 7.6 0 0 1-6.5 1.2 5.3 5.3 0 0 1-3.8-3.3c-.3-.9-.7-.8-1.4-.3-1.8 1.4-3.6 2.9-5.7 3.9-2.4 1.2-3.6 1-5.4-1l-.6-.8-1.3 2.9c-.9 2-2.3 3.5-4.2 4.7-1.2.8-2.4.7-3.5-.1-1.1-.8-1.1-1.9-.7-3 .7-2.4 2.4-3.9 4.4-5.2 2.3-1.6 2.9-2.8 2.2-5.6l-1.4-5.3c-.1-.4 0-1-.4-1.1-.5-.1-.7.5-1 .8a85 85 0 0 1-5.3 6.6c-1 1.1-2 2.3-3.1 3.3-1.9 1.7-3.7 1.8-5.6.1-1-.9-1.5-.7-2.3.3-.9 1.2-2 2.3-3.5 2.8-2.4.8-4.5-.2-5.5-2.5-.8-2.1-.9-4.2-.4-6.4a34 34 0 0 1 7.3-13.6c.6-.7 1.4-1.2 2.4-1.1 1.2.1 1.5.5 1.2 1.7-1.1 4.3-2.9 8.3-4.5 12.4-.7 2-1.6 3.9-1.9 6-.2 1.3.3 1.8 1.5 1.3 2-.9 3.6-2.1 4.1-4.4.7-3.1 1.3-6.2 2.7-9l1.3-2.4c1.1-1.7 2.8-2.2 4.6-1.3.5.2.8.6.8 1.2 0 .7-.1 1.4-.4 2.1l-3.4 9.1c-.1.4-.5.9 0 1.1.4.2.6-.3.9-.5l8.7-9.7c.7-.8 1-1.8 1.3-2.8 1-3.5 4.6-4.8 7.6-2.6.9.7 1 1.6.3 2.4l-1 1a6.4 6.4 0 0 0-2 3.7c-.4 2.1-.2 4.2 0 6.3 0 .3.1.7.5.8.4.1.6-.2.8-.4 1.1-1.1 1.8-2.5 2.6-3.8 1.5-2.4 3-4.9 5.4-6.6.9-.7 3-.6 3.8.3.4.5.1.9-.1 1.4l-4.7 8.5c-.8 1.6-1.6 3.2-2.1 4.9.5.2.7-.1.9-.3l1.9-1.6c2.3-1.6 4.1-3.7 5.4-6.3 2.3-4.5 6.4-6.7 11-8.1 1.6-.5 3.2-.1 4.8.3 1 .3 1.5 1.5 1.2 2.7-.3 1.2-1.4 2-2.3 1.8-.5-.1-.8-.5-.9-.9-.3-.7-.7-.9-1.3-.4a18.3 18.3 0 0 0-7.7 12.2c-.3 1.6 0 1.6 1.5 1.2 2-.6 3.6-1.9 5.1-3.3 2.4-2.5 4.9-5 7.1-7.7.4-.5.7-.6 1.2-.1l.1.7ZM207.5 69a6.9 6.9 0 0 0-3.7 4.8c-.1.3-.2.8.2 1 .4.2.8-.1 1.1-.3a6.5 6.5 0 0 0 2.4-5.5Z" fill="#040404"/><path d="M128.7 81.6h-2.9c4.1-12.4 9.8-24.2 15.6-36 4.8-9.9 9.9-19.7 14.8-29.5.7-1.3 1.5-2.5 2.4-3.7.8-1.1 1.9-1.5 3.3-1.4.8 0 1.2.4 1.2 1.2 0 2.1-.3 4.1-1.1 6-1 2.2-1.9 4.3-3.1 6.4a27.3 27.3 0 0 0-2.5 10.1c-1.3 10.3-2.4 20.6-4.1 30.8-.4 2.2-.5 4.4-.7 6.7a576 576 0 0 1 32.3-46.9c1.8-2.4 4.2-4.4 5.8-7 .9-1.5 2.4-1.6 4-1.3 1.5.4 2 1.3 1.4 2.7l-1.1 2.4c-7.2 14.7-14.2 29.6-20.9 44.5-2.1 4.6-3.8 9.3-5.6 14l-2.8.1c3.9-13.1 7.6-26.3 13.6-38.6-.9.5-1.4 1.4-1.9 2.1-8.5 11.9-18 23.1-25.4 35.8-.5.9-1.2 1.2-2.2.9-.5-.5-.4-1-.3-1.6.6-8.6.7-17.1 1-25.7.1-2.9-.2-5.8.3-8.7.1-.8.6-1.6.5-2.6-.5.3-.6.7-.8 1l-7.9 14.1c-4.9 7.8-8.8 16-12.9 24.2Z" fill="#030303"/><path d="m55.4 57.5 5.6-6.1c3-3.3 6.8-5.7 10.1-8.5 1.1-.9 2.1-.2 3 .4.9.6 1.1 1.5.7 2.4l-3.2 7.8-3 7.1c-.2.4-.5.9-.2 1.6l3.4-2.8 3.1-2.7c.7-.5 1-1.2 1.2-2A19 19 0 0 1 83 43.6c2.4-1.8 5-3.4 8.3-3.3 4.3.2 7.1 4.3 5 8.2C93.4 54 89.2 58 82.8 59c-1.3.2-2 .7-2.3 2.1-.4 1.7-.4 3.2.1 4.8.4 1.3 1.1 1.8 2.5 1.6 1.9-.4 3.6-1.1 5.1-2.5 3.1-2.9 5.6-6.3 8.4-9.4l4.7-5.3c.4-.4.9-1.1 1.4-.7.5.4.1 1.2-.2 1.7-2.4 3.4-5.1 6.5-7.5 9.8a30.1 30.1 0 0 1-9.2 7.8c-4.1 2.5-9.4-.5-10.1-5.6l-.5-3.9c-.8.2-1.1.7-1.4 1.1-1.6 1.7-3.1 3.3-4.9 4.9-2.2 1.9-4.3 1.3-5.2-1.4-.9-2.8-.6-5.5.4-8.2l2.5-6.2V49c-.3-.1-.5.2-.7.4a167.2 167.2 0 0 0-16.7 18l-1.4 1.9c-.6.8-1.4 1.2-2.4.8-1-.4-.9-1.3-.8-2.1l.4-3.6c-.6-.1-.8.4-1.1.7a31 31 0 0 1-3.9 3.3c-2.7 1.9-5.6.7-6.3-2.5-.7-2.9.3-5.6 1.1-8.3a40.8 40.8 0 0 1 9.9-16.1c.5-.6 1.2-.9 2-.9 2.2 0 3.1 1.4 2 3.4l-6.3 11.8c-1.8 3.3-2.8 6.8-4.1 10.3-.2.6-.1.8.5.6l1.8-.9a23 23 0 0 0 7.5-8 285 285 0 0 1 10.1-16.1c.9-.8 2.1-.9 3.1-.1 1.1.8 1.4 1.7.8 2.9l-5.9 11.2a4 4 0 0 0-.6 1.5l-.1.3h-.1Zm36.8-12c0-1.6-.1-1.7-1.6-.9a8 8 0 0 0-2.1 1.5 25.8 25.8 0 0 0-6.9 11.1c-.1.4-.5.9-.1 1.2.4.3.9.1 1.4-.1 4.6-1.4 9.3-7.9 9.3-12.8ZM86 78l-2.3.7c-1.8.4-3.5 1.1-5.3 1.2L60 80c0-2-.3-3.6 0-5.5 7.4.3 15 .1 22.4-.2 3.6-.1 7.2-.6 10.6-1.8.6-.2 1.2-.4 1.8-.3.6 0 1.1.2 1.2.8.1.7-.2 1-.8 1.3-2.9 1.3-6 2.6-9.2 3.7Z" fill="#040404"/><path d="M224.7 41.8c-.1-2.1.4-3.3 1.7-3.8 1.6-.7 3.8-.1 5 1.2.4.4.5.8.2 1.3l-2.2 3.4c-.7 1-1.7.9-2.7.8-.9-.2-1.6-.6-1.8-1.6l-.2-1.3ZM51.7 22.3l1.8.6c2 .9 2.3 1.8 1.2 3.6l-1.8 2.9c-.5.8-1.1.9-1.9.4-1.2-.7-1.7-2-1.5-3.4.1-1 .2-2 .5-2.9.3-.8.8-1.2 1.7-1.2Z" fill="#060606"/><path d="M125.5 83c.8-.1 2.2-1 3-1l-4 6.8c-.2.3-.4.3-.9 0s-.3-.7-.1-1.1c.5-1.3 1.5-3.2 2-4.7ZM164.4 82h2.6c-.4 1.3-1.2 2.4-1.9 3.5-.2.2-.3.6-.7.4-.4-.1-.5-.5-.4-.8l.4-3.1Z" fill="#0B0B0B"/><path d="M51.7 80.4c1.3-1.9 2.4-3.9 3.4-6l3.4-5.6.5-.9c.2-.2.3-.6.7-.4.3.1.2.5.2.8l-.5 6.2a57 57 0 0 0-.6 5.8l-.4 4c-.1.9.1 1.2 1 1.1l17.7-.5c.7 0 1.5-.2 1.9-.7 1.6-1.9 3.3-3.6 4.7-5.6l.3-.2c.3-.2.5-.6 1-.4.7 3.6.5 7.3.9 10.9.6 0 .8-.5 1-.8l6.2-7.5c.2-.3.4-.8.8-.6.5.2.3.7.3 1.1l-.9 18.2-.1 1.6c.7-.2.6-.8.8-1.2l11.4-32.6 7.6-21.8c.2-.6.2-1.7 1-1.6.7.1.5 1.2.6 1.8.6 7.1.8 14.1 1.1 21.2l.7 17.3.1.6c.6-.4.9-.8 1.2-1.3.6-1.1 1.5-1.5 2.8-1.5l5.2-.2h2.9c6.6.1 13.2-.3 19.8-.5 5.3-.1 10.6-.1 15.9-.5l2.8-.1 21-.6c9.9-.4 19.7-.6 29.6-.3.5 0 .9.1 1.4.4a15 15 0 0 1-4.7.8c-10.1.7-20.2.7-30.3 1l-17.8.5h-2.6l-10 .2-25.3.6-1.1.1a35.3 35.3 0 0 1-5.6.2c-.6 0-.9.4-1.1.9-1.5 3.1-3.5 5.9-5.2 8.8-.2.4-.4 1-.9.9-.5-.1-.6-.8-.6-1.3l-.2-5.9c-.4-11.5-1-23-1.2-34.6l-.1-.8c-.9.9-1.1 1.9-1.5 2.9l-15.6 46.4-5.1 15.1h-.5c-.1-2.5.4-5 .6-7.4l2.3-21.1v-2.1l-5 6.3-2.2 2.9c-.2.2-.3.7-.7.5a1314.3 1314.3 0 0 1-.6-5.7l-.5-8.3c-.5-.2-.6.2-.7.4l-1.4 1.6c-1.8 2.9-4.4 3.7-7.7 3.7-5.2-.1-10.3.3-15.5.4-2.1.1-2.1-.1-1.9-2.1l.6-4.8c.4-1.9.6-3.9.8-5.9.1-.9.4-1.8.3-3-.9 1-1.4 1.9-1.8 2.9a43 43 0 0 0-3.2 6c-2.2 3.4-3.9 7-6 10.5l-3.7 6.6c-.2.4-.4 1.1-1.1.8-.7-.3-.8-.9-.6-1.5l1.6-5.8 1.8-6c.3-.8.1-1.1-.8-1l-11.9.4c-9.7.2-19.3.9-29 .7l-1.5-.1c1.5-.5 3.1-.6 4.6-.7l38.1-1.4c2.9-.1 2.9-.1 2 2.8l-1.8 6.1.4.2c2.4-3.6 4.5-7.4 6.5-11.3Z" fill="#E41283"/></svg>
